X: 6993
T: Chicken And Spuds
R: slip jig
M: 9/8
K: Dmajor
|:dcd fed c2 A|GFG B2 A F2 D|
dcd fed Bcd|AFA GFE F2 D:|
|:DEF AGF G2 B|EFE GFE F2 A|
DFA dcB G2 B|EFE GFE D3:|

